assets/ios/swift/Icons.xcassets/iconDelete.imageset/iconDelete.svg

<svg width="24" height="24" viewBox="0 0 24 24" fill="none" xmlns="http://www.w3.org/2000/svg">
<path d="M7 21C6.45 21 5.97917 20.8042 5.5875 20.4125C5.19583 20.0208 5 19.55 5 19V6C4.71667 6 4.47917 5.90417 4.2875 5.7125C4.09583 5.52083 4 5.28333 4 5C4 4.71667 4.09583 4.47917 4.2875 4.2875C4.47917 4.09583 4.71667 4 5 4H9C9 3.71667 9.09583 3.47917 9.2875 3.2875C9.47917 3.09583 9.71667 3 10 3H14C14.2833 3 14.5208 3.09583 14.7125 3.2875C14.9042 3.47917 15 3.71667 15 4H19C19.2833 4 19.5208 4.09583 19.7125 4.2875C19.9042 4.47917 20 4.71667 20 5C20 5.28333 19.9042 5.52083 19.7125 5.7125C19.5208 5.90417 19.2833 6 19 6V19C19 19.55 18.8042 20.0208 18.4125 20.4125C18.0208 20.8042 17.55 21 17 21H7ZM7 6V19H17V6H7ZM9 16C9 16.2833 9.09583 16.5208 9.2875 16.7125C9.47917 16.9042 9.71667 17 10 17C10.2833 17 10.5208 16.9042 10.7125 16.7125C10.9042 16.5208 11 16.2833 11 16V9C11 8.71667 10.9042 8.47917 10.7125 8.2875C10.5208 8.09583 10.2833 8 10 8C9.71667 8 9.47917 8.09583 9.2875 8.2875C9.09583 8.47917 9 8.71667 9 9V16ZM13 16C13 16.2833 13.0958 16.5208 13.2875 16.7125C13.4792 16.9042 13.7167 17 14 17C14.2833 17 14.5208 16.9042 14.7125 16.7125C14.9042 16.5208 15 16.2833 15 16V9C15 8.71667 14.9042 8.47917 14.7125 8.2875C14.5208 8.09583 14.2833 8 14 8C13.7167 8 13.4792 8.09583 13.2875 8.2875C13.0958 8.47917 13 8.71667 13 9V16Z" fill="black"/>
</svg>

<svg xmlns="http://www.w3.org/2000/svg" width="24" height="24" fill="black" viewBox="0 0 24 24">
  <path fill="black" d="M7 21c-.55 0-1.02-.196-1.412-.587A1.926 1.926 0 0 1 5 19V6a.968.968 0 0 1-.713-.287A.968.968 0 0 1 4 5c0-.283.096-.52.287-.713A.968.968 0 0 1 5 4h4a.97.97 0 0 1 .287-.712A.968.968 0 0 1 10 3h4a.97.97 0 0 1 .713.288A.968.968 0 0 1 15 4h4a.97.97 0 0 1 .712.287c.192.192.288.43.288.713s-.096.52-.288.713A.968.968 0 0 1 19 6v13c0 .55-.196 1.02-.587 1.413A1.926 1.926 0 0 1 17 21H7Zm2-5c0 .283.096.52.287.712.192.192.43.288.713.288s.52-.096.713-.288A.968.968 0 0 0 11 16V9a.967.967 0 0 0-.287-.713A.968.968 0 0 0 10 8a.968.968 0 0 0-.713.287A.968.968 0 0 0 9 9v7Zm4 0c0 .283.096.52.287.712.192.192.43.288.713.288s.52-.096.713-.288A.968.968 0 0 0 15 16V9a.967.967 0 0 0-.287-.713A.968.968 0 0 0 14 8a.968.968 0 0 0-.713.287A.967.967 0 0 0 13 9v7Z"/>
</svg>
